svg/square_wave.svg

<svg xmlns="http://www.w3.org/2000/svg" viewBox="0 0 24 24"><path d="M2 2v10h2V4h7v18h11V12h-2v8h-7V2z"/></svg>

<?xml version="1.0" encoding="UTF-8"?><!DOCTYPE svg PUBLIC "-//W3C//DTD SVG 1.1//EN" "http://www.w3.org/Graphics/SVG/1.1/DTD/svg11.dtd"><svg xmlns="http://www.w3.org/2000/svg" xmlns:xlink="http://www.w3.org/1999/xlink" version="1.1" id="mdi-square-wave" width="24" height="24" viewBox="0 0 24 24"><path d="M2 2V12H4V4H11V22H22V12H20V20H13V2H2Z" /></svg>
